X: 25678
T: Martin Wynne's
R: reel
M: 4/4
K: Dmajor
"Bm"FBAF "A"E2FE|"G"DB~B2 "D"dBAF|"Em"BE~E2 "F#m"FEDE|"G"FABc "A"dcBA|
"Bm"F2AF "A"E2FE|"G"DB~B2 "D"dBAF|"Em"BE~E2 "F#m"FEDE|"Bm"FBBA B2BA:|
|:"D"FBAF "A"A2FA|"G"(3Bcd eg "A"fdde|"D"~f2af "A"e2fe|"G"dBAF "Bm"BAFE|
"D"FBAF "A"A2FA|"G"Bdeg "A"fdde|"D"~f2af "A"(3.e.f.g fe|"G"dBAF "Bm"~B2BA:|

